X:1
T:Sarabande
T:Sarabande
T:aus der Suite Nr. 4 in d-Moll, 3. Satz
T:Georg Friedrich Händel
T:HWV 437 (Urtext)
C:Georg Friedrich Händel
%%score { 1 | ( 2 3 ) }
L:1/8
Q:1/2=70
M:3/2
K:F
V:1 treble nm="Cembalo" snm="Cbl."
V:2 bass 
V:3 bass 
V:1
 [A,DF]4 [A,DF]4 z2 [EG]2 | [A,^CE]4 [A,CE]4 z4 | [=CFA]4 [CFA]4 z2 [GB]2 | %3
 [CEG]4 [CEG]4 z2 [^FA]2 | [DGB]4 [DGB]4 z2 [Ac]2 | [DFA]4 [DFA]4 z2 A2 | [Ad]4 [Gd]4 z2 e2 | %7
 [EA^c]4 !arpeggio![EAc]4 z4 | [A,DF]4 [A,DF]4 z2 [EG]2 | [A,^CE]4 [A,CE]4 z4 | %10
 [=CFA]4 [CFA]4 z2 [GB]2 | [CEG]4 [CEG]4 z2 [^FA]2 | [DGB]4 [CGB]4 z2 c2 | [CFA]6 A2 d2 ^c2 | %14
 d2 e2 f4 e2 d2 | [FAd]4 !arpeggio![FAd]4 z4 :| %16
V:2
 D,4 D,,4 z4 | A,,6 B,,2 A,,2 G,,2 | [F,,F,]4 [F,,F,]4 z4 | C,6 C,2 B,,2 A,,2 | G,,4 G,4 G,,4 | %5
 D,4 D,4 z2 C,2 | B,,4 B,4 z4 | A,4 z2 G,2 F,2 E,2 | D,4 D,,4 z4 | A,,6 B,,2 A,,2 G,,2 | %10
 [F,,F,]4 [F,,F,]4 z4 | C,6 C,2 B,,2 A,,2 | G,,2 G,2 E,2 G,2 C,2 E,2 | F,6 D,2 B,4 | G,4 A,4 A,,4 | %15
 D,4 D,,4 z4 :| %16
V:3
 x12 | x12 | x12 | x12 | x12 | x12 | x12 | x4 A,,4 z4 | x12 | x12 | x12 | x12 | x12 | x12 | x12 | %15
 x12 :| %16

